arb/images/icons/point.svg

<svg width="40" height="41" viewBox="0 0 40 41" fill="none" xmlns="http://www.w3.org/2000/svg">
<path d="M20 23.2578C18.7639 23.2578 17.5555 22.8913 16.5277 22.2045C15.4999 21.5177 14.6988 20.5416 14.2258 19.3996C13.7527 18.2575 13.6289 17.0009 13.8701 15.7885C14.1113 14.5761 14.7065 13.4625 15.5806 12.5884C16.4547 11.7143 17.5683 11.1191 18.7807 10.8779C19.9931 10.6367 21.2497 10.7605 22.3918 11.2336C23.5338 11.7066 24.5099 12.5077 25.1967 13.5355C25.8834 14.5633 26.25 15.7717 26.25 17.0078C26.248 18.6648 25.5889 20.2534 24.4172 21.425C23.2456 22.5967 21.657 23.2558 20 23.2578ZM20 13.2578C19.2583 13.2578 18.5333 13.4777 17.9166 13.8898C17.2999 14.3019 16.8193 14.8875 16.5355 15.5728C16.2516 16.258 16.1774 17.012 16.3221 17.7394C16.4668 18.4668 16.8239 19.135 17.3484 19.6595C17.8728 20.1839 18.541 20.5411 19.2684 20.6858C19.9958 20.8305 20.7498 20.7562 21.4351 20.4724C22.1203 20.1885 22.706 19.7079 23.118 19.0912C23.5301 18.4745 23.75 17.7495 23.75 17.0078C23.749 16.0136 23.3536 15.0603 22.6506 14.3573C21.9475 13.6542 20.9943 13.2588 20 13.2578Z" fill="#687A95"/>
<path d="M20 38.2578L9.45502 25.8216C9.30849 25.6348 9.16349 25.4469 9.02002 25.2578C7.21874 22.885 6.24565 19.9868 6.25001 17.0078C6.25001 13.3611 7.69867 9.86372 10.2773 7.28509C12.8559 4.70647 16.3533 3.25781 20 3.25781C23.6467 3.25781 27.1441 4.70647 29.7227 7.28509C32.3014 9.86372 33.75 13.3611 33.75 17.0078C33.7544 19.9855 32.7817 22.8824 30.9813 25.2541L30.98 25.2578C30.98 25.2578 30.605 25.7503 30.5488 25.8166L20 38.2578ZM11.015 23.7516C11.0175 23.7516 11.3075 24.1366 11.3738 24.2191L20 34.3928L28.6375 24.2053C28.6925 24.1366 28.985 23.7491 28.9863 23.7478C30.4577 21.8092 31.2529 19.4416 31.25 17.0078C31.25 14.0241 30.0648 11.1626 27.955 9.05286C25.8452 6.94308 22.9837 5.75781 20 5.75781C17.0163 5.75781 14.1548 6.94308 12.0451 9.05286C9.93528 11.1626 8.75001 14.0241 8.75001 17.0078C8.74739 19.4431 9.54349 21.8121 11.0163 23.7516H11.015Z" fill="#687A95" stroke="white" stroke-width="0.25"/>
</svg>

<svg width="40" height="41" fill="none" xmlns="http://www.w3.org/2000/svg"><path d="M20 23.258a6.25 6.25 0 116.25-6.25 6.257 6.257 0 01-6.25 6.25zm0-10a3.75 3.75 0 100 7.5 3.75 3.75 0 000-7.5z" fill="#687A95"/><path d="M20 38.258L9.455 25.822a44.16 44.16 0 01-.435-.564 13.611 13.611 0 01-2.77-8.25 13.75 13.75 0 0127.5 0 13.605 13.605 0 01-2.769 8.246l-.001.004s-.375.492-.431.559L20 38.257zm-8.985-14.506c.002 0 .292.385.359.467L20 34.393l8.637-10.188c.055-.068.348-.456.35-.457a11.126 11.126 0 002.263-6.74 11.25 11.25 0 10-22.5 0 11.131 11.131 0 002.266 6.744h-.001z" fill="#687A95" stroke="#fff" stroke-width=".25"/></svg>
